X: 29623
T: North Star, The
R: hornpipe
M: 4/4
K: Gmajor
|:D2|G>dB>G d>GB>G|c>Ge>G d>GB>G|D>GB>G (3cBA (3BAG|F>AG>E D2 (3DEF|
G>dB>G d>GB3/2[G/g/]|c3/2[G/g/]e>G d>GB>G|F>ed>c B>AG>F|G2 B2 G2:|
|:d2|d2 B>d A>dB>d|g>fg>d c>BA>G|[B,3/2B3/2]D/G3/2[B,/B/] [C3/2c3/2]E/A>G|F>dA>d D2 E>F|
G>Bd>B A>ce>c|B>de>f g>f (3gfe|(3edc B>G c>DE>F|G2 B2 G2:|

